packages/core/src/svgs/tokens/branded/PTS.svg

<svg width="24" height="24" viewBox="0 0 24 24" fill="none" xmlns="http://www.w3.org/2000/svg">
<path d="M10.9993 2.8206C9.32411 3.24293 7.84267 4.22346 6.79938 5.60055C6.34605 6.28054 6.06605 7.15386 4.39941 13.0804C3.75058 15.5084 3.02804 17.9162 2.23278 20.3002C2.07945 20.5802 1.97279 20.9337 2.00612 21.0803C2.05279 21.3269 2.19278 21.347 3.67276 21.3269C5.72606 21.307 6.17272 21.2203 6.63937 20.747C7.24603 20.127 7.46603 19.5471 8.35935 16.1804C9.59928 11.4938 10.3794 9.04723 10.8059 8.48051C11.5992 7.40052 13.1126 7.33386 14.9659 7.33386C16.5259 7.33386 16.5659 7.15386 15.5258 10.8005C15.0659 12.4005 13.5993 13.4271 11.5126 13.6004C10.9793 13.6404 10.4593 13.7337 10.366 13.8137C10.1327 14.007 10.146 15.2538 10.3859 15.7337C11.0593 17.047 12.7192 17.3004 14.0926 17.3337C16.4393 17.4004 18.1791 16.247 19.3658 13.7337C20.1792 12.0205 20.4191 11.1537 20.8991 8.27384C21.1391 6.8472 21.5258 5.0739 21.7659 4.34057C21.8724 4.02059 21.9458 3.67392 21.9925 3.37392C22.0524 2.99394 21.7458 2.66728 21.3591 2.66728H16.7392C16.7392 2.66728 11.6394 2.6606 10.9926 2.8206H10.9993Z" fill="url(#paint0_linear_364_1690)"/>
<defs>
<linearGradient id="paint0_linear_364_1690" x1="2.34611" y1="19.7603" x2="23.4391" y2="15.4937" gradientUnits="userSpaceOnUse">
<stop stop-color="#FD8C30"/>
<stop offset="0.54" stop-color="#C720B6"/>
<stop offset="0.8" stop-color="#9246E2"/>
<stop offset="1" stop-color="#6966FF"/>
</linearGradient>
</defs>
</svg>

<svg xmlns="http://www.w3.org/2000/svg" width="24" height="24" fill="none" viewBox="0 0 24 24">
    <path fill="url(#PTS__a)" d="M11 2.82A7.6 7.6 0 0 0 6.8 5.6c-.454.68-.734 1.554-2.4 7.48a124 124 0 0 1-2.167 7.22c-.154.28-.26.634-.227.78.047.247.187.267 1.667.247 2.053-.02 2.5-.107 2.966-.58.607-.62.827-1.2 1.72-4.567 1.24-4.686 2.02-7.133 2.447-7.7.793-1.08 2.307-1.146 4.16-1.146 1.56 0 1.6-.18.56 3.467-.46 1.6-1.927 2.626-4.013 2.8-.534.04-1.054.133-1.147.213-.233.193-.22 1.44.02 1.92.673 1.313 2.333 1.566 3.707 1.6 2.346.066 4.086-1.087 5.273-3.6.813-1.713 1.053-2.58 1.533-5.46.24-1.427.627-3.2.867-3.933.106-.32.18-.667.227-.967.06-.38-.247-.707-.634-.707h-4.62s-5.1-.006-5.746.154z"/>
    <defs>
        <linearGradient id="PTS__a" x1="2.346" x2="23.439" y1="19.76" y2="15.494" gradientUnits="userSpaceOnUse">
            <stop stop-color="#FD8C30"/>
            <stop offset=".54" stop-color="#C720B6"/>
            <stop offset=".8" stop-color="#9246E2"/>
            <stop offset="1" stop-color="#6966FF"/>
        </linearGradient>
    </defs>
</svg>
